X:1
T:Title
%%score ( 1 2 ) ( 3 4 )
L:1/8
Q:1/4=80
M:4/4
K:Ab
V:1 treble nm="Strings 1, Treble"
V:2 treble 
V:3 bass nm="Strings 1, Bass"
V:4 bass 
V:1
 z4 z2 [CE][CE] | [CA][CA][Ec][DB] [CA][CE][A,C][B,D] | [CE][CE][DF][CE] [CA]2 [Ec][Ec] | %3
w: 1.~If,~ dear~|sin ner,~ you~ are~ long ing~ All~ those~|sin ful~ chains~ to~ break,~ And~ re|
 [Ec][EB][EB][Ec] [Ed][Ed][Ec][EB] | [Ec][Ec][Ec][Ed] [Ee]2[Q:1/4=80] [CE][CA][Q:1/4=12] | %5
w: lieve~ your~ soul~ from~ an guish,~ Which~ no~|hu man~ form~ can~ take,~ Then~ de|
 [Ec][Ec][Ec][DB] [CA][CE][A,C][CE] | [DF][DF][DF][FA] [Fd]2[Q:1/4=80] [Fd][Fd][Q:1/4=12] | %7
w: cide~ this~ ver y~ mo ment,~ That~ from~|bond age~ you'll~ be~ free;~ Heed,~ oh,~|
 [Ec][Ec][Ec][DB] [CA][CE][Ee][Fd] | [Ec][Ec][DB][DB] [CA]2[Q:1/4=80] [Ec][Ec][Q:1/4=12] | %9
w: heed~ His~ woo ing~ Spir it,~ Come~ and~|He~ will~ par don~ thee.~ * *|
 [EB]2 [Ed]2 [Ec]2 [EB]2 | [EA]2 [Ec]4 [_Ge][Ge] | [Fd]2 [DF]2 [EG]2 E2 | [Ec]6 [A,C][B,D] | %13
w: ||||
 [CE]2 [CA]2 [Ec]2 [EA]2 | [DB]2 [DF]4 [EA][FB] | c2 c2 z2 B2 | A6 z2 |] %17
w: ||||
V:2
 x8 | x8 | x8 | x8 | x8 | x8 | x8 | x8 | x8 | x8 | x8 | x8 | x8 | x8 | x8 | EEEE [DB]2 DD | %16
 CDED C2 z2 |] %17
V:3
 z4 z2 [A,,A,][A,,A,] | [A,,A,][A,,A,][A,,A,][A,,A,] [A,,A,][A,,A,][A,,E,][A,,E,] | %2
 [A,,A,][A,,A,][A,,A,][A,,A,] [A,,A,]2 [A,,A,][A,,A,] | %3
 [E,A,][E,G,][E,G,][E,A,] [E,B,][E,B,][E,A,][E,G,] | A,A,A,[A,B,] [A,C]2 [A,,A,][A,,A,] | %5
 [A,,A,][A,,A,][A,,A,][A,,A,] [A,,A,][A,,A,][A,,E,][A,,A,] | %6
 [D,A,][D,A,][D,A,][D,A,] [D,A,]2 [D,A,][D,A,] | %7
 [A,,A,][A,,A,][A,,A,][A,,A,] [A,,A,][A,,A,][C,A,][D,A,] | %8
 [E,A,][E,A,][E,G,][E,G,] [A,,A,]2 [A,,A,][A,,A,] | %9
 [E,G,][E,G,][E,B,][E,B,] [E,A,][E,A,][E,D][E,D] | [A,C][A,C]A,A, A,A,[C,A,][C,A,] | %11
 [D,A,]2 [F,A,]2 [E,B,]2 [G,B,]2 | A,A,[E,A,][C,A,] [A,,A,]2 [A,,E,][A,,A,] | %13
 [A,,A,][A,,A,][A,,A,][A,,A,] [A,,A,][A,,A,][C,_G,][C,G,] | %14
 [D,F,][D,F,][D,A,][D,A,] [D,A,][D,A,][C,A,][D,A,] | A,A,A,A, [E,G,]2 G,G, | %16
 A,,-[A,,-F,][A,,-G,][A,,-F,] [A,,E,]2 z2 |] %17
V:4
 x8 | x8 | x8 | x8 | x8 | x8 | x8 | x8 | x8 | x8 | x8 | x8 | x8 | x8 | x8 | E,2 E,2 z2 E,2 | %16
 .E,2 z2 z4 |] %17

